X:16
T: mazurka de saint genest
M: 3/4
L: 1/8
R: mazurka
K: Emin
E F>E|:B2 B>c d>e|B2 zB c>B|A2 B>A G>F|G2 E>E F>E|
|B2 B>c d>e|B2 zB c>B|A2 B>A G>F|1 E2 zE F>E:||2 E2 ze e>d||
|:c2 c>B c>d|e2 ze d>c|B2 B>A B>c|B>G E>e e>d|
|c2 c>B c>d|e2 ze d>c|B2 A>G F>G|1 F2 ze e>d:|2 E2 zE F<E||
